X: 1
T: Culfadda, The
M: 4/4
L: 1/8
R: reel
K: Fmaj
|:G|AdcA ~G2AG|FAGF DEFD|CA,~A,2 CDFG|AF~F2 GABG|
AdcA GcAG|FAGF DEFD|CA,~A,2 CDFG|(3ABc GE F3:|
|:A|~c2Ac BGEG|~F2AF GFDF|CF~F2 dFcF|BAGF (3DEF GA|
~B3d cAGF|~d3e fcAF|CFAF DFBd|cAGA F3:|
